packages/bpk-svgs/src/icons/sm/business.svg

<svg xmlns="http://www.w3.org/2000/svg" viewBox="0 0 18 18" enable-background="new 0 0 18 18"><path d="M14 11.025v-.651c0-.756-.618-1.374-1.374-1.374h-.251c-.757 0-1.375.618-1.375 1.374v.651c-.558.065-1 .524-1 1.098v3.753c0 .619.505 1.124 1.123 1.124h2.753c.619 0 1.124-.505 1.124-1.123v-3.753c0-.575-.442-1.034-1-1.099zm-1.626-.99h.251c.184 0 .34.156.34.34v.625h-.93v-.626c0-.184.155-.339.339-.339zm-7.901-7.535c-.001-.827.668-1.498 1.495-1.5.83-.001 1.503.67 1.504 1.5 0 .828-.672 1.5-1.5 1.5h-.004c-.827-.002-1.496-.673-1.495-1.5zm2.872 2.5h-.372l-.758 3.03c-.063.253-.422.253-.485 0l-.757-3.03h-.373c-.884 0-1.6.716-1.6 1.6l.014.212.559 4.188c0 .221.179.4.4.4h.4l.6 5.6h2l.6-5.6h.4c.221 0 .4-.179.4-.4l.559-4.188c.117-.876-.5-1.682-1.376-1.798l-.211-.014z"/></svg>

<svg xmlns="http://www.w3.org/2000/svg" viewBox="0 0 18 18"><path d="M14 11.025v-.651C14 9.618 13.382 9 12.626 9h-.251C11.618 9 11 9.618 11 10.374v.651c-.558.065-1 .524-1 1.098v3.753c0 .619.505 1.124 1.123 1.124h2.753c.619 0 1.124-.505 1.124-1.123v-3.753c0-.575-.442-1.034-1-1.099zm-1.626-.99h.251c.184 0 .34.156.34.34V11h-.93v-.626c0-.184.155-.339.339-.339zM4.473 2.5A1.498 1.498 0 0 1 5.968 1a1.5 1.5 0 0 1 .004 3h-.004a1.498 1.498 0 0 1-1.495-1.5zM7.345 5h-.372l-.758 3.03c-.063.253-.422.253-.485 0L4.973 5H4.6A1.6 1.6 0 0 0 3 6.6l.014.212L3.573 11a.4.4 0 0 0 .4.4h.4l.6 5.6h2l.6-5.6h.4a.4.4 0 0 0 .4-.4l.559-4.188a1.6 1.6 0 0 0-1.376-1.798L7.345 5z"/></svg>
